X: 2
T: S\^irba
O: Romania
D: Carpati: 50 miles, 50 years
S: Transcriptionby Steve Rauch
Z: 2009 John Chambers <jc:trillian.mit.edu>
M: 4/4
L: 1/8
K: Em
B,2 \
| "Em"B,E FG "B7"FE ^DB, | "Em"E6 zE \
| "Em"EG ^AB AG FE | "Em"^AB3 z2 (3d^cB |
| "Em"^AB^cd ed cB | "Em"^AB ^cd cB AG \
| "F#7"FG ^AB "B7"B/A/G G/F/E | "Em"E4 y2 :|
|: D2 \
| "G"B2 (3^AB^c d2 (3cde | "G"(3=fed (3^cde (3dc=c (3BAG \
| "G"B2 (3^AB^c d2 (3cde | "G"(3=fed ^cB cd- d2 |
| "G"B2 (3^AB^c d2 (3cde | "G"(3=fed (3^cde (3dc=c (3BAG \
| "D7"A>B cd "G"BG "D7"(3cBA | "G"G4 z2 :|
|: "(B7)"B2 \
| "Em"^A>B G>B "B7"F>B ^D>B | "E"E6 ze \
| "Em"^d>e c>e "E7"B>e ^G>e | "Am"A2 ze |
| "Em"ge "B7"^d3 BcA | "Em"B2 B4 GE \
| "F#7"FG ^AB "B7"B/A/G G/F/E | "Em"E4 y2 :|
